X:19
T:The Knock's Session
R:reel
C:Jim McGraw
O:Co. Fermanagh, Ireland
S:http://www.cranfordpub.com/recordings/mcgraw.htm
D:Melodious Accord, Jim McGraw
Z:psc
H: Every Sunday night a great gathering of musicians, singers, dancers and storytellers would while away the night in the Knocks Community Hall which is located about three miles from Lisnaskea. The session invited everyone from beginner to professional to entertain in this very friendly music circle
L:1/8
Q:366
M:C|
K:D
E|FAAB ADFA|BdcB ADDE|FAAB ADFA|(B/c/d) AF E3 D|
FAAB ADFA|BdcB A2 dc|BdAd GdFd|GECE D3:|
|:E|FA A/A/A fA A/A/A|fAeA dAFA|GBeG FAdf|edcB AB (3(GAG)|
FA A/A/A fA A/A/A|fAeA dAFA|GBeG FAdF|GECE D3:|
